symbolic/status/airplane-mode-symbolic.svg

<svg xmlns="http://www.w3.org/2000/svg" width="16" height="16"><path d="M6.5 1c-.8 0-.78.03-.53 1.03L7.59 7h-4.5L1.87 5.22C1.73 5.01 1.75 5 1.53 5h-.22c-.43 0-.28.43-.28.43L1.31 8l-.28 2.56s-.14.44.25.44h.25c.21 0 .2-.01.34-.22L3.09 9h4.5l-1.62 4.93C5.7 14.98 5.7 15 6.5 15c.43 0 .43-.02.72-.5L10.9 9H14c.55 0 1-.45 1-1 0-.56-.45-1-1-1h-3.1L7.22 1.5c-.27-.46-.29-.5-.66-.5z" fill="#f8f8f2"/></svg>

<svg xmlns="http://www.w3.org/2000/svg" width="16" height="16" version="1.1">
 <path style="fill:#dfdfdf" d="M 6.5,1 C 5.7,1 5.72,1.03 5.97,2.03 L 7.59,7 H 3.09 L 1.87,5.22 C 1.73,5.01 1.75,5 1.53,5 H 1.31 C 0.88003,5 1.03,5.43 1.03,5.43 L 1.31,8 1.03,10.56 C 1.03,10.56 0.89003,11 1.28,11 H 1.53 C 1.74,11 1.73,10.99 1.87,10.78 L 3.09,9 H 7.59 L 5.97,13.93 C 5.7,14.98 5.7,15 6.5,15 6.93,15 6.93,14.98 7.22,14.5 L 10.9,9 H 14 C 14.55,9 15,8.55 15,8 15,7.44 14.55,7 14,7 H 10.9 L 7.22,1.5 C 6.95,1.04 6.93,1 6.56,1 Z"/>
</svg>
